X: 4
T: Rantin', Roarin' Willie
M: 9/8
L: 1/8
R: slip jig
K: G Mixolydian
|: d>^cd G2 A B>de | f>ef A2 B c2 e |
d>^cd G2 A B2 ^f | g^fg B2 c d>e=f |
g>fe f>ed e>dc | f>ef A2 B c2 e |
d>^cd e2 d e<gB | A2 G G3- G2 :|
